svgs/themed_icon_calendar_23.svg

<svg height="192" width="192" xmlns="http://www.w3.org/2000/svg"><path d="M146 30H46c-8.837 0-16 7.163-16 16v100c0 8.837 7.163 16 16 16h75.373a16 16 0 0 0 11.313-4.686l24.628-24.628A16 16 0 0 0 162 121.373V46c0-8.837-7.163-16-16-16Z" stroke="#000" stroke-width="12" fill="none"/><path d="M63.484 120c-1.824 0-3.144-.408-3.96-1.224-.816-.864-1.224-2.112-1.224-3.744 0-1.056.264-2.04.792-2.952.528-.912 1.248-1.848 2.16-2.808l13.536-14.256c2.016-2.16 3.456-4.08 4.32-5.76.912-1.68 1.368-3.36 1.368-5.04 0-4.32-2.664-6.48-7.992-6.48-1.392 0-2.832.192-4.32.576-1.44.384-2.952 1.056-4.536 2.016-1.296.768-2.496.936-3.6.504-1.056-.432-1.848-1.176-2.376-2.232a5.23 5.23 0 0 1-.36-3.312c.288-1.2 1.08-2.184 2.376-2.952a24.478 24.478 0 0 1 6.912-2.88c2.496-.672 4.968-1.008 7.416-1.008 5.664 0 9.984 1.272 12.96 3.816 3.024 2.496 4.536 6.072 4.536 10.728 0 3.072-.72 6.024-2.16 8.856-1.392 2.784-3.696 5.808-6.912 9.072l-9.792 9.936h16.704c3.12 0 4.68 1.512 4.68 4.536 0 3.072-1.56 4.608-4.68 4.608H63.484Zm52.172.792c-2.544 0-5.136-.288-7.776-.864-2.592-.576-4.848-1.44-6.768-2.592-1.536-.816-2.496-1.824-2.88-3.024-.384-1.248-.336-2.4.144-3.456.528-1.056 1.368-1.8 2.52-2.232 1.152-.48 2.472-.36 3.96.36 1.872.912 3.648 1.56 5.328 1.944 1.68.384 3.36.576 5.04.576 5.856 0 8.784-2.184 8.784-6.552 0-4.032-2.736-6.048-8.208-6.048h-4.248c-1.584 0-2.808-.384-3.672-1.152-.816-.816-1.224-1.92-1.224-3.312 0-1.44.408-2.544 1.224-3.312.864-.816 2.088-1.224 3.672-1.224h3.168c2.4 0 4.296-.552 5.688-1.656 1.392-1.104 2.088-2.64 2.088-4.608 0-3.936-2.568-5.904-7.704-5.904-1.584 0-3.12.192-4.608.576-1.44.336-3.024.96-4.752 1.872-1.344.672-2.544.792-3.6.36-1.056-.432-1.848-1.176-2.376-2.232-.48-1.056-.576-2.16-.288-3.312.288-1.152 1.128-2.112 2.52-2.88 4.176-2.448 8.88-3.672 14.112-3.672 5.472 0 9.744 1.224 12.816 3.672 3.072 2.448 4.608 5.808 4.608 10.08 0 2.64-.672 4.968-2.016 6.984-1.344 2.016-3.216 3.48-5.616 4.392 2.88.816 5.112 2.328 6.696 4.536 1.632 2.16 2.448 4.776 2.448 7.848 0 4.608-1.704 8.232-5.112 10.872-3.408 2.64-8.064 3.96-13.968 3.96Z"/></svg>

<?xml version="1.0" encoding="UTF-8" standalone="no"?><svg xmlns:android="http://schemas.android.com/apk/res/android" height="192" width="192" xmlns="http://www.w3.org/2000/svg">
  <path d="M146,30H46C37.163,30 30,37.163 30,46V146C30,154.837 37.163,162 46,162H121.373C125.616,162 129.686,160.314 132.686,157.314L157.314,132.686C160.314,129.686 162,125.616 162,121.373V46C162,37.163 154.837,30 146,30Z" fill="#000000" fill-opacity="0.0" stroke="#000000" stroke-width="12"/>
  <path d="M63.484,120C61.66,120 60.34,119.592 59.524,118.776C58.708,117.912 58.3,116.664 58.3,115.032C58.3,113.976 58.564,112.992 59.092,112.08C59.62,111.168 60.34,110.232 61.252,109.272L74.788,95.016C76.804,92.856 78.244,90.936 79.108,89.256C80.02,87.576 80.476,85.896 80.476,84.216C80.476,79.896 77.812,77.736 72.484,77.736C71.092,77.736 69.652,77.928 68.164,78.312C66.724,78.696 65.212,79.368 63.628,80.328C62.332,81.096 61.132,81.264 60.028,80.832C58.972,80.4 58.18,79.656 57.652,78.6C57.172,77.544 57.052,76.44 57.292,75.288C57.58,74.088 58.372,73.104 59.668,72.336C61.78,71.04 64.084,70.08 66.58,69.456C69.076,68.784 71.548,68.448 73.996,68.448C79.66,68.448 83.98,69.72 86.956,72.264C89.98,74.76 91.492,78.336 91.492,82.992C91.492,86.064 90.772,89.016 89.332,91.848C87.94,94.632 85.636,97.656 82.42,100.92L72.628,110.856H89.332C92.452,110.856 94.012,112.368 94.012,115.392C94.012,118.464 92.452,120 89.332,120H63.484ZM115.656,120.792C113.112,120.792 110.52,120.504 107.88,119.928C105.288,119.352 103.032,118.488 101.112,117.336C99.576,116.52 98.616,115.512 98.232,114.312C97.848,113.064 97.896,111.912 98.376,110.856C98.904,109.8 99.744,109.056 100.896,108.624C102.048,108.144 103.368,108.264 104.856,108.984C106.728,109.896 108.504,110.544 110.184,110.928C111.864,111.312 113.544,111.504 115.224,111.504C121.08,111.504 124.008,109.32 124.008,104.952C124.008,100.92 121.272,98.904 115.8,98.904H111.552C109.968,98.904 108.744,98.52 107.88,97.752C107.064,96.936 106.656,95.832 106.656,94.44C106.656,93 107.064,91.896 107.88,91.128C108.744,90.312 109.968,89.904 111.552,89.904H114.72C117.12,89.904 119.016,89.352 120.408,88.248C121.8,87.144 122.496,85.608 122.496,83.64C122.496,79.704 119.928,77.736 114.792,77.736C113.208,77.736 111.672,77.928 110.184,78.312C108.744,78.648 107.16,79.272 105.432,80.184C104.088,80.856 102.888,80.976 101.832,80.544C100.776,80.112 99.984,79.368 99.456,78.312C98.976,77.256 98.88,76.152 99.168,75C99.456,73.848 100.296,72.888 101.688,72.12C105.864,69.672 110.568,68.448 115.8,68.448C121.272,68.448 125.544,69.672 128.616,72.12C131.688,74.568 133.224,77.928 133.224,82.2C133.224,84.84 132.552,87.168 131.208,89.184C129.864,91.2 127.992,92.664 125.592,93.576C128.472,94.392 130.704,95.904 132.288,98.112C133.92,100.272 134.736,102.888 134.736,105.96C134.736,110.568 133.032,114.192 129.624,116.832C126.216,119.472 121.56,120.792 115.656,120.792Z" fill="#000000"/>
</svg>
